; generated by PrusaSlicer 2.4.2 on 2023-05-22 at 01:38:39 UTC

; 

; external perimeters extrusion width = 0.45mm
; perimeters extrusion width = 0.45mm
; infill extrusion width = 0.45mm
; solid infill extrusion width = 0.45mm
; top infill extrusion width = 0.40mm
; first layer extrusion width = 0.42mm

; external perimeters extrusion width = 0.45mm
; perimeters extrusion width = 0.45mm
; infill extrusion width = 0.45mm
; solid infill extrusion width = 0.45mm
; top infill extrusion width = 0.40mm
; first layer extrusion width = 0.42mm

M107
;TYPE:Custom
G90 ; use absolute coordinates
M83 ; extruder relative mode
M140 S60 ; set final bed temp
M104 S150 ; set temporary nozzle temp to prevent oozing during homing
G4 S10 ; allow partial nozzle warmup
G28 ; home all axis
G1 Z50 F240
G1 X2 Y10 F3000
M104 S210 ; set final nozzle temp
M190 S60 ; wait for bed temp to stabilize
M109 S210 ; wait for nozzle temp to stabilize
G1 Z0.28 F240
G92 E0
G1 Y140 E10 F1500 ; prime the nozzle
G1 X2.3 F5000
G92 E0
G1 Y10 E10 F1200 ; prime the nozzle
G92 E0
G21 ; set units to millimeters
G90 ; use absolute coordinates
M83 ; use relative distances for extrusion
; Filament gcode
M107
;LAYER_CHANGE
;Z:0.2
;HEIGHT:0.2
;BEFORE_LAYER_CHANGE
G92 E0
;0.2


G1 E-5 F3600
G1 Z.2 F9000
;AFTER_LAYER_CHANGE
;0.2
G1 X91.956 Y79.887
G1 E5 F2400
M204 S500
;TYPE:Skirt/Brim
;WIDTH:0.42
G1 F1200
G1 X92.617 Y79.36 E.02651
G1 X93.34 Y79.018 E.02508
G1 X94.5 Y78.823 E.03689
G1 X136.878 Y78.844 E1.32873
G1 X137.703 Y79.032 E.02652
G1 X138.421 Y79.384 E.02508
G1 X139.044 Y79.887 E.02512
G1 X139.516 Y80.479 E.02372
G1 X139.868 Y81.197 E.02508
G1 X140.077 Y82.4 E.03827
G1 X140.077 Y148.6 E2.07565
G1 X139.882 Y149.76 E.03689
G1 X139.54 Y150.483 E.02508
G1 X139.044 Y151.113 E.02512
G1 X138.383 Y151.64 E.02651
G1 X137.66 Y151.982 E.02508
G1 X136.5 Y152.177 E.03689
G1 X94.5 Y152.177 E1.31688
G1 X93.34 Y151.982 E.03689
G1 X92.617 Y151.64 E.02508
G1 X91.987 Y151.144 E.02512
G1 X91.46 Y150.483 E.02651
G1 X91.118 Y149.76 E.02508
G1 X90.923 Y148.6 E.03689
G1 X90.923 Y82.4 E2.07565
G1 X91.118 Y81.24 E.03689
G1 X91.46 Y80.517 E.02508
G1 X91.919 Y79.934 E.02324
G1 E-3.5 F3600
;WIPE_START
G1 F7200
G1 X92.617 Y79.36 E-.42947
G1 X93.34 Y79.018 E-.37999
G1 X94.5 Y78.823 E-.55881
G1 X94.619 Y78.823 E-.05673
;WIPE_END
G1 E-.075 F3600
G1 X119.65 Y131.75 F9000
G1 E5 F2400
;TYPE:Perimeter
G1 F1200
G1 X135.55 Y131.75 E.49855
G1 X135.55 Y147.65 E.49855
G1 X119.65 Y147.65 E.49855
G1 X119.65 Y131.81 E.49667
G1 X120.027 Y132.127 F9000
;TYPE:External perimeter
G1 F1200
G1 X135.173 Y132.127 E.4749
G1 X135.173 Y147.273 E.4749
G1 X120.027 Y147.273 E.4749
G1 X120.027 Y132.187 E.47302
G1 X119.923 Y131.74 F9000
G1 X119.187 Y131.287
;TYPE:Perimeter
G1 F1200
G1 X136.013 Y131.29 E.52756
G1 X136.013 Y148.113 E.52747
G1 X119.187 Y148.113 E.52756
G1 X119.187 Y131.347 E.52568
G1 X118.81 Y130.91 F9000
;TYPE:External perimeter
G1 F1200
G1 X136.39 Y130.913 E.55121
G1 X136.39 Y148.49 E.55111
G1 X118.81 Y148.49 E.55121
G1 X118.81 Y130.97 E.54933
G1 X119.196 Y131.014 F9000
G1 X119.426 Y131.526
;TYPE:Gap fill
;WIDTH:0.143141
G1 F1200
G1 X119.461 Y131.518 E.0003
;WIDTH:0.128394
G1 X135.739 Y131.52 E.11569
;WIDTH:0.141501
G1 X135.775 Y131.528 E.0003
;WIDTH:0.1415
G1 X135.782 Y131.561 E.00028
;WIDTH:0.128526
G1 X135.782 Y147.839 E.11587
;WIDTH:0.143214
G1 X135.774 Y147.874 E.0003
;WIDTH:0.143214
G1 X135.739 Y147.882 E.0003
;WIDTH:0.128526
G1 X119.461 Y147.882 E.11587
;WIDTH:0.143214
G1 X119.426 Y147.874 E.0003
;WIDTH:0.143214
G1 X119.418 Y147.839 E.0003
;WIDTH:0.128526
G1 X119.418 Y131.585 E.1157
G1 E-3.5 F3600
;WIPE_START
G1 F7200
G1 X119.461 Y131.518 E-.03761
;WIPE_END
G1 E-1.46239 F3600
G1 X125.983 Y138.276 F9000
G1 E5 F2400
;TYPE:Perimeter
;WIDTH:0.42
G1 F1200
G1 X126.175 Y138.095 E.00828
G1 X126.162 Y138.262 E.00524
G1 X126.042 Y138.271 E.00375
G1 X125.209 Y138.706 F9000
;TYPE:External perimeter
G1 F1200
G1 X125.433 Y138.284 E.01497
G1 X125.621 Y138.134 E.00755
G1 X125.702 Y138.019 E.00441
G1 X126.123 Y137.628 E.01801
G1 X126.175 Y137.545 E.00308
G1 X126.616 Y137.306 E.01571
G1 X126.521 Y138.621 E.04134
G1 X125.255 Y138.712 E.0398
G1 X125.431 Y138.373 F9000
G1 E-3.5 F3600
;WIPE_START
G1 F7200
G1 X125.433 Y138.284 E-.21993
G1 X125.621 Y138.134 E-.1143
G1 X125.702 Y138.019 E-.06679
G1 X126.123 Y137.628 E-.27289
G1 X126.175 Y137.545 E-.04665
G1 X126.616 Y137.306 E-.23807
G1 X126.545 Y138.285 E-.46639
;WIPE_END
G1 E-.075 F3600
G1 X126.834 Y137.24 F9000
G1 E5 F2400
G1 F1200
G1 X127.101 Y137.159 E.00876
G1 X127.596 Y137.111 E.01559
G1 X128.101 Y137.159 E.01589
G1 X128.382 Y137.24 E.00919
G1 X126.894 Y137.24 E.04667
G1 X127.106 Y137.18 F9000
G1 E-3.5 F3600
;WIPE_START
G1 F7200
G1 X127.101 Y137.159 E-.10574
G1 X127.596 Y137.111 E-.23624
G1 X128.101 Y137.159 E-.24076
G1 X128.382 Y137.24 E-.13923
G1 X126.902 Y137.24 E-.70303
;WIPE_END
G1 E-.075 F3600
G1 X129.025 Y138.095 F9000
G1 E5 F2400
;TYPE:Perimeter
G1 F1200
G1 X129.217 Y138.276 E.00828
G1 X129.038 Y138.262 E.00563
G1 X129.03 Y138.155 E.00336
G1 X128.585 Y137.314 F9000
;TYPE:External perimeter
G1 F1200
G1 X129.013 Y137.535 E.01511
G1 X129.081 Y137.632 E.00371
G1 X129.498 Y138.019 E.01784
G1 X129.579 Y138.134 E.00441
G1 X129.767 Y138.284 E.00754
G1 X129.893 Y138.497 E.00776
G1 X129.994 Y138.716 E.00755
G1 X128.679 Y138.621 E.04136
G1 X128.59 Y137.374 E.03921
G1 X128.92 Y137.533 F9000
G1 E-3.5 F3600
;WIPE_START
G1 F7200
G1 X129.013 Y137.535 E-.21519
G1 X129.081 Y137.632 E-.05627
G1 X129.498 Y138.019 E-.2703
G1 X129.579 Y138.134 E-.0668
G1 X129.767 Y138.284 E-.1143
G1 X129.893 Y138.497 E-.11757
G1 X129.994 Y138.716 E-.11439
G1 X129.007 Y138.645 E-.47019
;WIPE_END
G1 E-.075 F3600
G1 X130.06 Y138.915 F9000
G1 E5 F2400
G1 F1200
G1 X130.113 Y139.076 E.00529
G1 X130.188 Y139.7 E.01972
G1 X130.113 Y140.324 E.01972
G1 X130.06 Y140.485 E.00529
G1 X130.06 Y138.975 E.04732
G1 X130.097 Y139.08 F9000
G1 E-3.5 F3600
;WIPE_START
G1 F7200
G1 X130.113 Y139.076 E-.05386
G1 X130.188 Y139.7 E-.29869
G1 X130.113 Y140.324 E-.29869
G1 X130.06 Y140.485 E-.0802
G1 X130.06 Y139.025 E-.69355
;WIPE_END
G1 E-.075 F3600
G1 X129.217 Y141.124 F9000
G1 E5 F2400
;TYPE:Perimeter
G1 F1200
G1 X129.025 Y141.305 E.00828
G1 X129.038 Y141.138 E.00524
G1 X129.158 Y141.129 E.00375
G1 X129.994 Y140.684 F9000
;TYPE:External perimeter
G1 F1200
G1 X129.893 Y140.903 E.00755
G1 X129.767 Y141.116 E.00776
G1 X129.579 Y141.266 E.00755
G1 X129.498 Y141.381 E.00441
G1 X129.077 Y141.772 E.01801
G1 X129.025 Y141.855 E.00308
G1 X128.584 Y142.094 E.01571
G1 X128.679 Y140.779 E.04134
G1 X129.935 Y140.689 E.03948
G1 X129.869 Y140.889 F9000
G1 E-3.5 F3600
;WIPE_START
G1 F7200
G1 X129.893 Y140.903 E-.10346
G1 X129.767 Y141.116 E-.11757
G1 X129.579 Y141.266 E-.1143
G1 X129.498 Y141.381 E-.06679
G1 X129.077 Y141.772 E-.27288
G1 X129.025 Y141.855 E-.04665
G1 X128.584 Y142.094 E-.23807
G1 X128.654 Y141.117 E-.46528
;WIPE_END
G1 E-.075 F3600
G1 X128.366 Y142.16 F9000
G1 E5 F2400
G1 F1200
G1 X128.099 Y142.241 E.00876
G1 X127.6 Y142.29 E.01572
G1 X127.099 Y142.241 E.01577
G1 X126.818 Y142.16 E.00919
G1 X128.306 Y142.16 E.04667
G1 X128.094 Y142.22 F9000
G1 E-3.5 F3600
;WIPE_START
G1 F7200
G1 X128.099 Y142.241 E-.10574
G1 X127.6 Y142.29 E-.23813
G1 X127.099 Y142.241 E-.23889
G1 X126.818 Y142.16 E-.13923
G1 X128.298 Y142.16 E-.70301
;WIPE_END
G1 E-.075 F3600
G1 X126.175 Y141.305 F9000
G1 E5 F2400
;TYPE:Perimeter
G1 F1200
G1 X125.983 Y141.124 E.00828
G1 X126.162 Y141.138 E.00563
G1 X126.17 Y141.245 E.00336
G1 X126.615 Y142.086 F9000
;TYPE:External perimeter
G1 F1200
G1 X126.187 Y141.865 E.01511
G1 X126.119 Y141.768 E.00371
G1 X125.702 Y141.381 E.01784
G1 X125.621 Y141.266 E.00441
G1 X125.433 Y141.116 E.00754
G1 X125.307 Y140.903 E.00776
G1 X125.206 Y140.684 E.00755
G1 X126.521 Y140.779 E.04136
G1 X126.61 Y142.026 E.03921
G1 X126.28 Y141.867 F9000
G1 E-3.5 F3600
;WIPE_START
G1 F7200
G1 X126.187 Y141.865 E-.21519
G1 X126.119 Y141.768 E-.05627
G1 X125.702 Y141.381 E-.2703
G1 X125.621 Y141.266 E-.0668
G1 X125.433 Y141.116 E-.1143
G1 X125.307 Y140.903 E-.11757
G1 X125.206 Y140.684 E-.11439
G1 X126.193 Y140.755 E-.47019
;WIPE_END
G1 E-.075 F3600
G1 X125.14 Y140.485 F9000
G1 E5 F2400
G1 F1200
G1 X125.087 Y140.324 E.00529
G1 X125.012 Y139.7 E.01972
G1 X125.087 Y139.076 E.01972
G1 X125.14 Y138.915 E.00529
G1 X125.14 Y140.425 E.04732
G1 X125.103 Y140.32 F9000
G1 X125.557 Y140.901
;TYPE:Gap fill
;WIDTH:0.105553
G1 F1200
G1 X125.602 Y140.969 E.00042
;WIDTH:0.105552
G1 X125.65 Y141.02 E.00036
G1 E-3.5 F3600
;WIPE_START
G1 F7200
G1 X125.602 Y140.969 E-.03321
;WIPE_END
G1 E-1.46679 F3600
G1 X125.557 Y138.499 F9000
G1 E5 F2400
;WIDTH:0.105586
G1 F1200
G1 X125.602 Y138.431 E.00042
;WIDTH:0.105585
G1 X125.65 Y138.38 E.00036
G1 E-3.5 F3600
;WIPE_START
G1 F7200
G1 X125.602 Y138.431 E-.03326
;WIPE_END
G1 E-1.46674 F3600
G1 X129.55 Y138.38 F9000
G1 E5 F2400
;WIDTH:0.105576
G1 F1200
G1 X129.598 Y138.431 E.00036
;WIDTH:0.105574
G1 X129.643 Y138.499 E.00042
G1 E-3.5 F3600
;WIPE_START
G1 F7200
G1 X129.598 Y138.431 E-.03843
;WIPE_END
G1 E-1.46157 F3600
G1 X129.643 Y140.901 F9000
G1 E5 F2400
;WIDTH:0.105564
G1 F1200
G1 X129.598 Y140.969 E.00042
;WIDTH:0.105564
G1 X129.55 Y141.02 E.00036
G1 E-3.5 F3600
;WIPE_START
G1 F7200
G1 X129.598 Y140.969 E-.03323
;WIPE_END
G1 E-1.46677 F3600
G1 X111.35 Y131.75 F9000
G1 E5 F2400
;TYPE:Perimeter
;WIDTH:0.42
G1 F1200
G1 X111.35 Y147.65 E.49855
G1 X95.45 Y147.65 E.49855
G1 X95.45 Y131.75 E.49855
G1 X111.29 Y131.75 E.49667
G1 X110.973 Y132.127 F9000
;TYPE:External perimeter
G1 F1200
G1 X110.973 Y147.273 E.4749
G1 X95.827 Y147.273 E.4749
G1 X95.827 Y132.127 E.4749
G1 X110.913 Y132.127 E.47302
G1 X111.36 Y132.023 F9000
G1 X111.813 Y131.29
;TYPE:Perimeter
G1 F1200
G1 X111.813 Y148.113 E.52747
G1 X94.987 Y148.113 E.52756
G1 X94.987 Y131.287 E.52756
G1 X111.753 Y131.29 E.52568
G1 X112.19 Y130.913 F9000
;TYPE:External perimeter
G1 F1200
G1 X112.19 Y148.49 E.55111
G1 X94.61 Y148.49 E.55121
G1 X94.61 Y130.91 E.55121
G1 X112.13 Y130.913 E.54933
G1 X112.086 Y131.299 F9000
G1 X111.575 Y131.528
;TYPE:Gap fill
;WIDTH:0.141501
G1 F1200
G1 X111.575 Y131.528 E0
;WIDTH:0.1415
G1 X111.582 Y131.561 E.00028
;WIDTH:0.128526
G1 X111.582 Y147.839 E.11587
;WIDTH:0.143214
G1 X111.574 Y147.874 E.0003
;WIDTH:0.143214
G1 X111.539 Y147.882 E.0003
;WIDTH:0.128526
G1 X95.261 Y147.882 E.11587
;WIDTH:0.143214
G1 X95.226 Y147.874 E.0003
;WIDTH:0.143214
G1 X95.218 Y147.839 E.0003
;WIDTH:0.128526
G1 X95.218 Y131.561 E.11587
;WIDTH:0.14314
G1 X95.226 Y131.526 E.0003
;WIDTH:0.143141
G1 X95.261 Y131.518 E.0003
;WIDTH:0.128394
G1 X111.516 Y131.52 E.11553
G1 E-3.5 F3600
;WIPE_START
G1 F7200
G1 X111.575 Y131.528 E-.02834
;WIPE_END
G1 E-1.47166 F3600
G1 X101.975 Y138.095 F9000
G1 E5 F2400
;TYPE:Perimeter
;WIDTH:0.42
G1 F1200
G1 X101.962 Y138.262 E.00524
G1 X101.783 Y138.276 E.00563
G1 X101.931 Y138.136 E.0064
G1 X102.416 Y137.306 F9000
;TYPE:External perimeter
G1 F1200
G1 X102.321 Y138.621 E.04134
G1 X101.006 Y138.716 E.04136
G1 X101.107 Y138.497 E.00755
G1 X101.233 Y138.284 E.00776
G1 X101.421 Y138.134 E.00755
G1 X101.502 Y138.019 E.00441
G1 X101.923 Y137.628 E.01801
G1 X101.975 Y137.545 E.00308
G1 X102.363 Y137.334 E.01384
G1 X102.268 Y137.678 F9000
G1 X102.634 Y137.24
G1 F1200
G1 X102.901 Y137.159 E.00876
G1 X103.396 Y137.111 E.01559
G1 X103.901 Y137.159 E.01589
G1 X104.182 Y137.24 E.00919
G1 X102.694 Y137.24 E.04667
G1 X102.906 Y137.18 F9000
G1 E-3.5 F3600
;WIPE_START
G1 F7200
G1 X102.901 Y137.159 E-.10574
G1 X103.396 Y137.111 E-.23624
G1 X103.901 Y137.159 E-.24076
G1 X104.182 Y137.24 E-.13923
G1 X102.702 Y137.24 E-.70303
;WIPE_END
G1 E-.075 F3600
G1 X104.825 Y138.095 F9000
G1 E5 F2400
;TYPE:Perimeter
G1 F1200
G1 X105.017 Y138.276 E.00828
G1 X104.838 Y138.262 E.00563
G1 X104.83 Y138.155 E.00336
G1 X104.385 Y137.314 F9000
;TYPE:External perimeter
G1 F1200
G1 X104.813 Y137.535 E.01511
G1 X104.881 Y137.632 E.00371
G1 X105.298 Y138.019 E.01784
G1 X105.379 Y138.134 E.00441
G1 X105.567 Y138.284 E.00754
G1 X105.693 Y138.497 E.00776
G1 X105.794 Y138.716 E.00755
G1 X104.479 Y138.621 E.04136
G1 X104.39 Y137.374 E.03921
G1 X104.72 Y137.533 F9000
G1 E-3.5 F3600
;WIPE_START
G1 F7200
G1 X104.813 Y137.535 E-.21519
G1 X104.881 Y137.632 E-.05627
G1 X105.298 Y138.019 E-.2703
G1 X105.379 Y138.134 E-.0668
G1 X105.567 Y138.284 E-.1143
G1 X105.693 Y138.497 E-.11757
G1 X105.794 Y138.716 E-.11439
G1 X104.807 Y138.645 E-.47019
;WIPE_END
G1 E-.075 F3600
G1 X105.86 Y138.915 F9000
G1 E5 F2400
G1 F1200
G1 X105.913 Y139.076 E.00529
G1 X105.988 Y139.7 E.01972
G1 X105.913 Y140.324 E.01972
G1 X105.86 Y140.485 E.00529
G1 X105.86 Y138.975 E.04732
G1 X105.897 Y139.08 F9000
G1 E-3.5 F3600
;WIPE_START
G1 F7200
G1 X105.913 Y139.076 E-.05386
G1 X105.988 Y139.7 E-.29869
G1 X105.913 Y140.324 E-.29869
G1 X105.86 Y140.485 E-.0802
G1 X105.86 Y139.025 E-.69355
;WIPE_END
G1 E-.075 F3600
G1 X105.017 Y141.124 F9000
G1 E5 F2400
;TYPE:Perimeter
G1 F1200
G1 X104.825 Y141.305 E.00828
G1 X104.838 Y141.138 E.00524
G1 X104.958 Y141.129 E.00375
G1 X105.794 Y140.684 F9000
;TYPE:External perimeter
G1 F1200
G1 X105.693 Y140.903 E.00755
G1 X105.567 Y141.116 E.00776
G1 X105.379 Y141.266 E.00755
G1 X105.298 Y141.381 E.00441
G1 X104.877 Y141.772 E.01801
G1 X104.825 Y141.855 E.00308
G1 X104.384 Y142.094 E.01571
G1 X104.479 Y140.779 E.04134
G1 X105.735 Y140.689 E.03948
G1 X105.669 Y140.889 F9000
G1 E-3.5 F3600
;WIPE_START
G1 F7200
G1 X105.693 Y140.903 E-.10346
G1 X105.567 Y141.116 E-.11757
G1 X105.379 Y141.266 E-.1143
G1 X105.298 Y141.381 E-.06679
G1 X104.877 Y141.772 E-.27288
G1 X104.825 Y141.855 E-.04665
G1 X104.384 Y142.094 E-.23807
G1 X104.454 Y141.117 E-.46528
;WIPE_END
G1 E-.075 F3600
G1 X104.166 Y142.16 F9000
G1 E5 F2400
G1 F1200
G1 X103.899 Y142.241 E.00876
G1 X103.4 Y142.29 E.01572
G1 X102.899 Y142.241 E.01577
G1 X102.618 Y142.16 E.00919
G1 X104.106 Y142.16 E.04667
G1 X103.894 Y142.22 F9000
G1 E-3.5 F3600
;WIPE_START
G1 F7200
G1 X103.899 Y142.241 E-.10574
G1 X103.4 Y142.29 E-.23813
G1 X102.899 Y142.241 E-.23889
G1 X102.618 Y142.16 E-.13923
G1 X104.098 Y142.16 E-.70301
;WIPE_END
G1 E-.075 F3600
G1 X101.975 Y141.305 F9000
G1 E5 F2400
;TYPE:Perimeter
G1 F1200
G1 X101.783 Y141.124 E.00828
G1 X101.962 Y141.138 E.00563
G1 X101.97 Y141.245 E.00336
G1 X102.415 Y142.086 F9000
;TYPE:External perimeter
G1 F1200
G1 X101.987 Y141.865 E.01511
G1 X101.919 Y141.768 E.00371
G1 X101.502 Y141.381 E.01784
G1 X101.421 Y141.266 E.00441
G1 X101.233 Y141.116 E.00754
G1 X101.107 Y140.903 E.00776
G1 X101.006 Y140.684 E.00755
G1 X102.321 Y140.779 E.04136
G1 X102.41 Y142.026 E.03921
G1 X102.08 Y141.867 F9000
G1 E-3.5 F3600
;WIPE_START
G1 F7200
G1 X101.987 Y141.865 E-.21519
G1 X101.919 Y141.768 E-.05627
G1 X101.502 Y141.381 E-.2703
G1 X101.421 Y141.266 E-.0668
G1 X101.233 Y141.116 E-.1143
G1 X101.107 Y140.903 E-.11757
G1 X101.006 Y140.684 E-.11439
G1 X101.993 Y140.755 E-.47019
;WIPE_END
G1 E-.075 F3600
G1 X100.94 Y140.485 F9000
G1 E5 F2400
G1 F1200
G1 X100.887 Y140.324 E.00529
G1 X100.812 Y139.7 E.01972
G1 X100.887 Y139.076 E.01972
G1 X100.94 Y138.915 E.00529
G1 X100.94 Y140.425 E.04732
G1 X100.903 Y140.32 F9000
G1 X101.357 Y140.901
;TYPE:Gap fill
;WIDTH:0.105553
G1 F1200
G1 X101.402 Y140.969 E.00042
;WIDTH:0.105552
G1 X101.45 Y141.02 E.00036
G1 E-3.5 F3600
;WIPE_START
G1 F7200
G1 X101.402 Y140.969 E-.03321
;WIPE_END
G1 E-1.46679 F3600
G1 X101.357 Y138.499 F9000
G1 E5 F2400
;WIDTH:0.105586
G1 F1200
G1 X101.402 Y138.431 E.00042
;WIDTH:0.105585
G1 X101.45 Y138.38 E.00036
G1 E-3.5 F3600
;WIPE_START
G1 F7200
G1 X101.402 Y138.431 E-.03326
;WIPE_END
G1 E-1.46674 F3600
G1 X105.35 Y138.38 F9000
G1 E5 F2400
;WIDTH:0.105576
G1 F1200
G1 X105.398 Y138.431 E.00036
;WIDTH:0.105574
G1 X105.443 Y138.499 E.00042
G1 E-3.5 F3600
;WIPE_START
G1 F7200
G1 X105.398 Y138.431 E-.03843
;WIPE_END
G1 E-1.46157 F3600
G1 X105.443 Y140.901 F9000
G1 E5 F2400
;WIDTH:0.105564
G1 F1200
G1 X105.398 Y140.969 E.00042
;WIDTH:0.105564
G1 X105.35 Y141.02 E.00036
G1 E-3.5 F3600
;WIPE_START
G1 F7200
G1 X105.398 Y140.969 E-.03323
;WIPE_END
G1 E-1.46677 F3600
G1 X111.35 Y107.55 F9000
G1 E5 F2400
;TYPE:Perimeter
;WIDTH:0.42
G1 F1200
G1 X111.35 Y123.45 E.49855
