; generated by PrusaSlicer 2.4.2 on 2023-05-26 at 02:30:16 UTC

; 

; external perimeters extrusion width = 0.45mm
; perimeters extrusion width = 0.45mm
; infill extrusion width = 0.45mm
; solid infill extrusion width = 0.45mm
; top infill extrusion width = 0.40mm
; first layer extrusion width = 0.42mm

; external perimeters extrusion width = 0.45mm
; perimeters extrusion width = 0.45mm
; infill extrusion width = 0.45mm
; solid infill extrusion width = 0.45mm
; top infill extrusion width = 0.40mm
; first layer extrusion width = 0.42mm

M107
;TYPE:Custom
G90 ; use absolute coordinates
M83 ; extruder relative mode
M140 S60 ; set final bed temp
M104 S150 ; set temporary nozzle temp to prevent oozing during homing
G4 S10 ; allow partial nozzle warmup
G28 ; home all axis
G1 Z50 F240
G1 X2 Y10 F3000
M104 S210 ; set final nozzle temp
M190 S60 ; wait for bed temp to stabilize
M109 S210 ; wait for nozzle temp to stabilize
G1 Z0.28 F240
G92 E0
G1 Y140 E10 F1500 ; prime the nozzle
G1 X2.3 F5000
G92 E0
G1 Y10 E10 F1200 ; prime the nozzle
G92 E0
G21 ; set units to millimeters
G90 ; use absolute coordinates
M83 ; use relative distances for extrusion
; Filament gcode
M107
;LAYER_CHANGE
;Z:0.2
;HEIGHT:0.2
;BEFORE_LAYER_CHANGE
G92 E0
;0.2


G1 E-5 F3600
G1 Z.2 F9000
;AFTER_LAYER_CHANGE
;0.2
G1 X88.113 Y77.86
G1 E5 F2400
M204 S500
;TYPE:Skirt/Brim
;WIDTH:0.42
G1 F1200
G1 X89.576 Y76.305 E.06693
G1 X91.467 Y75.189 E.06885
G1 X93.543 Y74.631 E.0674
G1 X113.282 Y74.63 E.61892
G1 X115.729 Y75.36 E.08006
G1 X117.644 Y76.668 E.07273
G1 X118.8 Y78.186 E.0598
G1 X137.046 Y78.232 E.5721
G1 X139.372 Y78.893 E.07582
G1 X140.204 Y79.324 E.02936
G1 X142.116 Y80.931 E.07835
G1 X143.493 Y83.272 E.08512
G1 X143.984 Y85.564 E.07352
G1 X143.984 Y104.224 E.58507
G1 X143.968 Y104.37 E.00459
G1 X144.33 Y106.168 E.05751
G1 X144.33 Y124.883 E.58679
G1 X143.716 Y127.436 E.08235
G1 X143.634 Y127.617 E.00623
G1 X143.77 Y127.893 E.00964
G1 X144.33 Y130.336 E.07861
G1 X144.33 Y149.05 E.58675
G1 X143.839 Y151.324 E.07296
G1 X142.748 Y153.33 E.07159
G1 X141.124 Y154.923 E.07133
G1 X139.072 Y155.987 E.07248
G1 X136.936 Y156.43 E.0684
G1 X118.24 Y156.43 E.58622
G1 X115.89 Y155.906 E.07549
G1 X115.487 Y155.712 E.01402
G1 X115.063 Y155.916 E.01476
G1 X112.748 Y156.43 E.07437
G1 X94.05 Y156.43 E.58624
G1 X91.776 Y155.939 E.07296
G1 X89.77 Y154.848 E.07159
G1 X88.177 Y153.224 E.07133
G1 X87.113 Y151.172 E.07248
G1 X86.67 Y149.036 E.0684
G1 X86.67 Y130.34 E.58622
G1 X87.194 Y127.99 E.07549
G1 X87.388 Y127.587 E.01402
G1 X87.184 Y127.163 E.01475
G1 X86.67 Y124.848 E.07437
G1 X86.67 Y106.14 E.58657
G1 X87.194 Y103.79 E.07549
G1 X87.388 Y103.387 E.01402
G1 X87.184 Y102.963 E.01475
G1 X86.67 Y100.648 E.07437
G1 X86.67 Y81.951 E.58623
G1 X87.123 Y79.777 E.06961
G1 X88.085 Y77.913 E.06578
G1 X88.42 Y78.087 F9000
G1 F1200
G1 X89.831 Y76.584 E.06463
G1 X91.635 Y75.528 E.06556
G1 X93.615 Y75.002 E.06425
G1 X113.202 Y75 E.61413
G1 X115.541 Y75.688 E.07645
G1 X117.406 Y76.962 E.07081
G1 X118.611 Y78.563 E.06281
G1 X137.019 Y78.609 E.57717
G1 X139.25 Y79.25 E.0728
G1 X139.977 Y79.626 E.02566
G1 X141.849 Y81.199 E.07668
G1 X143.131 Y83.381 E.07933
G1 X143.607 Y85.585 E.0707
G1 X143.607 Y104.212 E.58403
G1 X143.586 Y104.384 E.00544
G1 X143.953 Y106.187 E.0577
G1 X143.953 Y124.86 E.58548
G1 X143.356 Y127.323 E.07945
G1 X143.206 Y127.62 E.01043
G1 X143.409 Y128.004 E.01361
G1 X143.953 Y130.358 E.07576
G1 X143.953 Y149.029 E.58543
G1 X143.477 Y151.217 E.07021
G1 X142.431 Y153.123 E.06817
G1 X140.881 Y154.633 E.06785
G1 X138.97 Y155.624 E.0675
G1 X136.917 Y156.053 E.06577
G1 X118.261 Y156.053 E.58494
G1 X115.997 Y155.544 E.07277
G1 X115.488 Y155.289 E.01784
G1 X114.957 Y155.553 E.01859
G1 X112.727 Y156.053 E.07166
G1 X94.071 Y156.053 E.58494
G1 X91.883 Y155.577 E.07021
G1 X89.977 Y154.531 E.06817
G1 X88.467 Y152.982 E.06784
G1 X87.477 Y151.07 E.0675
G1 X87.047 Y149.017 E.06577
G1 X87.047 Y130.361 E.58494
G1 X87.556 Y128.097 E.07277
G1 X87.811 Y127.588 E.01784
G1 X87.547 Y127.057 E.01859
G1 X87.047 Y124.827 E.07166
G1 X87.047 Y106.161 E.58525
G1 X87.556 Y103.897 E.07277
G1 X87.811 Y103.388 E.01784
G1 X87.547 Y102.857 E.01859
G1 X87.047 Y100.627 E.07167
G1 X87.047 Y81.97 E.58495
G1 X87.487 Y79.881 E.06696
G1 X88.392 Y78.14 E.06151
G1 X88.726 Y78.315 F9000
G1 F1200
G1 X88.756 Y78.257 E.00207
G1 X90.084 Y76.864 E.06033
G1 X91.802 Y75.867 E.06226
G1 X93.687 Y75.373 E.06112
G1 X113.123 Y75.369 E.60939
G1 X115.354 Y76.016 E.07282
G1 X117.167 Y77.255 E.06886
G1 X118.421 Y78.939 E.06582
G1 X136.94 Y78.979 E.58066
G1 X139.128 Y79.607 E.0714
G1 X139.752 Y79.929 E.022
G1 X141.542 Y81.42 E.07303
G1 X142.769 Y83.491 E.07549
G1 X143.23 Y85.605 E.06784
G1 X143.23 Y104.198 E.58296
G1 X143.203 Y104.396 E.00627
G1 X143.576 Y106.206 E.05796
G1 X143.576 Y124.837 E.58415
G1 X142.996 Y127.208 E.07652
G1 X142.775 Y127.623 E.01475
G1 X143.048 Y128.117 E.0177
G1 X143.576 Y130.38 E.07285
G1 X143.576 Y149.009 E.58412
G1 X143.133 Y151.061 E.06582
G1 X142.147 Y152.875 E.06471
G1 X140.682 Y154.312 E.06436
G1 X138.866 Y155.26 E.06421
G1 X136.897 Y155.676 E.06311
G1 X118.282 Y155.676 E.58365
G1 X116.105 Y155.182 E.07001
G1 X115.489 Y154.864 E.02174
G1 X114.849 Y155.191 E.02251
G1 X112.705 Y155.676 E.06892
G1 X94.091 Y155.676 E.58365
G1 X92.039 Y155.233 E.06582
G1 X90.226 Y154.247 E.06471
G1 X88.788 Y152.782 E.06436
G1 X87.84 Y150.966 E.06421
G1 X87.424 Y148.997 E.06311
G1 X87.424 Y130.382 E.58366
G1 X87.918 Y128.205 E.07001
G1 X88.236 Y127.589 E.02173
G1 X87.909 Y126.949 E.02251
G1 X87.424 Y124.805 E.06892
G1 X87.424 Y106.182 E.58392
G1 X87.918 Y104.005 E.07001
G1 X88.236 Y103.389 E.02173
G1 X87.909 Y102.749 E.02251
G1 X87.424 Y100.605 E.06892
G1 X87.424 Y81.99 E.58366
G1 X87.85 Y79.985 E.06428
G1 X88.698 Y78.369 E.05723
G1 X89.031 Y78.545 F9000
G1 F1200
G1 X89.077 Y78.457 E.00311
G1 X90.337 Y77.145 E.05704
G1 X91.967 Y76.207 E.05897
G1 X93.758 Y75.744 E.05801
G1 X113.045 Y75.739 E.60473
G1 X115.166 Y76.345 E.06916
G1 X116.927 Y77.549 E.06688
G1 X118.229 Y79.316 E.06883
G1 X136.861 Y79.349 E.58419
G1 X139.007 Y79.965 E.07
G1 X139.528 Y80.233 E.01839
G1 X141.235 Y81.642 E.0694
G1 X142.407 Y83.603 E.07163
G1 X142.853 Y85.626 E.06495
G1 X142.853 Y104.183 E.58185
G1 X142.82 Y104.406 E.00708
G1 X143.199 Y106.226 E.05827
G1 X143.199 Y124.814 E.58282
G1 X142.636 Y127.091 E.07355
G1 X142.34 Y127.626 E.01917
G1 X142.688 Y128.232 E.0219
G1 X143.199 Y130.402 E.0699
G1 X143.199 Y148.99 E.58281
G1 X142.788 Y150.906 E.06147
G1 X141.861 Y152.627 E.06126
G1 X140.481 Y153.992 E.06088
G1 X138.762 Y154.897 E.06091
G1 X136.877 Y155.299 E.06043
G1 X118.304 Y155.299 E.58235
G1 X116.214 Y154.82 E.06721
G1 X115.49 Y154.437 E.0257
G1 X114.741 Y154.829 E.02651
G1 X112.684 Y155.299 E.06614
G1 X94.11 Y155.299 E.58236
G1 X92.194 Y154.888 E.06147
G1 X90.473 Y153.961 E.06126
G1 X89.108 Y152.581 E.06088
G1 X88.203 Y150.862 E.06091
G1 X87.801 Y148.977 E.06043
G1 X87.801 Y130.404 E.58235
G1 X88.28 Y128.314 E.06721
G1 X88.663 Y127.59 E.0257
G1 X88.271 Y126.841 E.02651
G1 X87.801 Y124.784 E.06614
G1 X87.801 Y106.204 E.58258
G1 X88.28 Y104.114 E.06721
G1 X88.663 Y103.39 E.0257
G1 X88.271 Y102.641 E.02651
G1 X87.801 Y100.584 E.06615
G1 X87.801 Y82.01 E.58236
G1 X88.213 Y80.09 E.06159
G1 X89.003 Y78.598 E.05293
G1 X89.335 Y78.775 F9000
G1 F1200
G1 X89.397 Y78.658 E.00414
G1 X90.589 Y77.427 E.05374
G1 X92.131 Y76.547 E.05568
G1 X93.828 Y76.115 E.0549
G1 X113.019 Y76.116 E.60172
G1 X114.979 Y76.673 E.06388
G1 X116.687 Y77.841 E.0649
G1 X118.037 Y79.693 E.07183
G1 X136.782 Y79.718 E.58776
G1 X138.885 Y80.322 E.0686
G1 X139.305 Y80.538 E.01481
G1 X140.929 Y81.865 E.06576
G1 X142.046 Y83.715 E.06776
G1 X142.476 Y85.647 E.06205
G1 X142.476 Y104.167 E.5807
G1 X142.437 Y104.415 E.00787
G1 X142.822 Y106.246 E.05865
G1 X142.822 Y124.791 E.58147
G1 X142.277 Y126.973 E.07054
G1 X141.901 Y127.63 E.02371
G1 X142.328 Y128.348 E.0262
G1 X142.822 Y130.424 E.0669
G1 X142.822 Y148.969 E.58147
G1 X142.425 Y150.801 E.05875
G1 X141.575 Y152.38 E.05623
G1 X140.279 Y153.673 E.05741
G1 X138.656 Y154.534 E.05759
G1 X136.857 Y154.922 E.05773
G1 X118.325 Y154.922 E.58104
G1 X116.325 Y154.459 E.06438
G1 X115.491 Y154.008 E.02974
G1 X114.631 Y154.468 E.03059
G1 X112.662 Y154.922 E.06333
G1 X94.131 Y154.922 E.58104
G1 X92.299 Y154.525 E.05875
G1 X90.72 Y153.675 E.05623
G1 X89.427 Y152.379 E.05741
G1 X88.566 Y150.756 E.05759
G1 X88.178 Y148.957 E.05773
G1 X88.178 Y130.425 E.58104
G1 X88.641 Y128.425 E.06438
G1 X89.092 Y127.591 E.02974
G1 X88.632 Y126.731 E.03058
G1 X88.178 Y124.762 E.06333
G1 X88.178 Y106.225 E.58122
G1 X88.641 Y104.225 E.06438
G1 X89.093 Y103.391 E.02974
G1 X88.632 Y102.531 E.03058
G1 X88.178 Y100.562 E.06333
G1 X88.178 Y82.031 E.58105
G1 X88.576 Y80.196 E.05887
G1 X89.306 Y78.828 E.04862
G1 X89.637 Y79.006 F9000
G1 F1200
G1 X89.716 Y78.861 E.00517
G1 X90.84 Y77.71 E.05044
G1 X92.294 Y76.888 E.05239
G1 X93.897 Y76.486 E.05181
G1 X112.941 Y76.486 E.59712
G1 X114.845 Y77.028 E.06207
G1 X116.446 Y78.133 E.06099
G1 X117.647 Y79.798 E.06439
G1 X117.764 Y80.115 E.01058
G1 X118.034 Y80.07 E.00858
G1 X136.703 Y80.088 E.58537
G1 X138.763 Y80.679 E.0672
G1 X139.084 Y80.844 E.01129
G1 X140.625 Y82.09 E.06214
G1 X141.685 Y83.829 E.06386
G1 X142.099 Y85.668 E.05911
G1 X142.099 Y104.15 E.5795
G1 X142.045 Y104.467 E.01006
G1 X142.092 Y104.591 E.00416
G1 X142.445 Y106.265 E.05367
G1 X142.445 Y124.767 E.58011
G1 X141.918 Y126.854 E.06748
G1 X141.461 Y127.634 E.02835
G1 X141.969 Y128.466 E.03059
G1 X142.445 Y130.447 E.06385
G1 X142.445 Y148.949 E.58012
G1 X142.062 Y150.694 E.05603
G1 X141.288 Y152.134 E.05125
G1 X140.075 Y153.354 E.05395
G1 X138.55 Y154.171 E.05426
G1 X136.836 Y154.545 E.055
G1 X118.347 Y154.545 E.57971
G1 X116.437 Y154.098 E.06151
G1 X115.492 Y153.577 E.03384
G1 X114.519 Y154.106 E.03473
G1 X112.641 Y154.545 E.06048
G1 X94.151 Y154.545 E.57971
G1 X92.406 Y154.162 E.05603
G1 X90.966 Y153.388 E.05125
G1 X89.746 Y152.175 E.05395
G1 X88.929 Y150.65 E.05426
G1 X88.555 Y148.936 E.055
G1 X88.555 Y130.447 E.57971
G1 X89.002 Y128.537 E.06151
G1 X89.523 Y127.592 E.03384
G1 X88.994 Y126.619 E.03473
G1 X88.555 Y124.741 E.06048
G1 X88.555 Y106.247 E.57985
G1 X89.002 Y104.337 E.06151
G1 X89.523 Y103.392 E.03384
G1 X88.994 Y102.419 E.03473
G1 X88.555 Y100.541 E.06049
G1 X88.555 Y82.051 E.57972
G1 X88.938 Y80.303 E.05613
G1 X89.609 Y79.059 E.0443
G1 X89.939 Y79.239 F9000
G1 F1200
G1 X90.034 Y79.065 E.0062
G1 X91.089 Y77.995 E.04714
G1 X92.455 Y77.23 E.0491
G1 X93.965 Y76.858 E.04874
G1 X112.865 Y76.856 E.59261
G1 X114.657 Y77.356 E.05834
G1 X116.204 Y78.424 E.05894
G1 X117.32 Y79.99 E.06028
G1 X117.501 Y80.554 E.01857
G1 X118.054 Y80.447 E.01766
G1 X136.625 Y80.458 E.58227
G1 X138.642 Y81.037 E.06581
G1 X138.864 Y81.15 E.00781
G1 X140.322 Y82.316 E.05853
G1 X141.325 Y83.943 E.05993
G1 X141.722 Y85.689 E.05614
G1 X141.722 Y104.132 E.57827
G1 X141.653 Y104.511 E.01207
G1 X141.727 Y104.689 E.00606
G1 X142.068 Y106.285 E.05117
G1 X142.068 Y124.743 E.57874
G1 X141.56 Y126.733 E.06438
G1 X141.017 Y127.638 E.03308
G1 X141.61 Y128.586 E.03507
G1 X142.068 Y130.469 E.06077
G1 X142.068 Y148.928 E.57875
G1 X141.7 Y150.587 E.05328
G1 X141.001 Y151.889 E.04633
G1 X139.871 Y153.036 E.05049
G1 X138.442 Y153.809 E.05091
G1 X136.816 Y154.168 E.05224
G1 X118.369 Y154.168 E.57837
G1 X116.55 Y153.737 E.05861
G1 X115.493 Y153.144 E.03801
G1 X114.407 Y153.746 E.03894
G1 X112.618 Y154.168 E.0576
G1 X94.172 Y154.168 E.57837
G1 X92.513 Y153.8 E.05328
G1 X91.211 Y153.101 E.04633
G1 X90.064 Y151.971 E.05049
G1 X89.291 Y150.543 E.05091
G1 X88.932 Y148.916 E.05224
G1 X88.932 Y130.469 E.57837
G1 X89.363 Y128.65 E.05861
G1 X89.956 Y127.593 E.03801
G1 X89.354 Y126.507 E.03894
G1 X88.932 Y124.718 E.05761
G1 X88.932 Y106.269 E.57846
G1 X89.363 Y104.45 E.05861
G1 X89.956 Y103.393 E.03801
G1 X89.354 Y102.307 E.03894
G1 X88.932 Y100.518 E.05761
G1 X88.932 Y82.072 E.57837
G1 X89.301 Y80.411 E.05335
G1 X89.91 Y79.292 E.03996
G1 X90.239 Y79.473 F9000
G1 F1200
G1 X90.351 Y79.271 E.00723
G1 X91.337 Y78.28 E.04384
G1 X92.615 Y77.572 E.04581
G1 X94.031 Y77.23 E.04568
G1 X112.789 Y77.226 E.58813
G1 X114.525 Y77.71 E.05651
G1 X115.961 Y78.714 E.05492
G1 X116.993 Y80.179 E.05621
G1 X117.234 Y80.994 E.02664
G1 X118.074 Y80.824 E.02686
G1 X136.546 Y80.827 E.57919
G1 X138.52 Y81.394 E.06441
G1 X138.645 Y81.458 E.00439
G1 X140.02 Y82.544 E.05492
G1 X140.964 Y84.059 E.05599
G1 X141.345 Y85.711 E.05314
G1 X141.345 Y104.113 E.577
G1 X141.26 Y104.558 E.01421
G1 X141.364 Y104.791 E.00798
G1 X141.691 Y106.306 E.04859
G1 X141.691 Y124.719 E.57734
G1 X141.202 Y126.611 E.06125
G1 X140.571 Y127.642 E.03792
G1 X141.251 Y128.707 E.03963
G1 X141.691 Y130.492 E.05764
G1 X141.691 Y148.907 E.57737
G1 X141.338 Y150.478 E.0505
G1 X140.683 Y151.684 E.04304
G1 X139.623 Y152.75 E.04713
G1 X138.335 Y153.447 E.04592
G1 X136.795 Y153.791 E.04948
G1 X118.392 Y153.791 E.577
G1 X116.665 Y153.377 E.05568
G1 X115.495 Y152.71 E.04224
G1 X114.293 Y153.385 E.04322
G1 X112.596 Y153.791 E.05469
G1 X94.193 Y153.791 E.57701
G1 X92.622 Y153.438 E.0505
G1 X91.416 Y152.783 E.04304
G1 X90.35 Y151.723 E.04713
G1 X89.653 Y150.435 E.04592
G1 X89.309 Y148.895 E.04948
G1 X89.309 Y130.492 E.577
G1 X89.723 Y128.765 E.05568
G1 X90.39 Y127.595 E.04224
G1 X89.715 Y126.393 E.04322
G1 X89.309 Y124.696 E.05469
G1 X89.309 Y106.292 E.57705
G1 X89.723 Y104.565 E.05568
G1 X90.39 Y103.395 E.04224
G1 X89.715 Y102.193 E.04322
G1 X89.309 Y100.496 E.05469
G1 X89.309 Y82.093 E.57701
G1 X89.662 Y80.52 E.05055
G1 X90.21 Y79.526 E.0356
G1 X90.538 Y79.709 F9000
G1 F1200
G1 X90.667 Y79.479 E.00825
G1 X91.583 Y78.567 E.04054
G1 X92.773 Y77.916 E.04253
G1 X94.096 Y77.602 E.04265
G1 X112.762 Y77.603 E.58525
G1 X114.39 Y78.064 E.05306
G1 X115.715 Y79.002 E.05089
G1 X116.664 Y80.367 E.05213
G1 X116.964 Y81.436 E.03483
G1 X118.094 Y81.201 E.03619
G1 X136.519 Y81.204 E.57771
G1 X138.398 Y81.751 E.06136
G1 X139.719 Y82.774 E.05238
G1 X140.605 Y84.176 E.05201
G1 X140.968 Y85.733 E.05011
G1 X140.968 Y104.094 E.5757
G1 X140.864 Y104.609 E.01646
G1 X141 Y104.895 E.00994
G1 X141.313 Y106.326 E.04594
G1 X141.313 Y124.695 E.57593
G1 X140.845 Y126.487 E.05807
G1 X140.293 Y127.373 E.03273
G1 X140.087 Y127.591 E.00942
G1 X140.893 Y128.83 E.04636
G1 X141.313 Y130.516 E.05446
G1 X141.313 Y148.885 E.57597
G1 X140.976 Y150.369 E.04771
G1 X140.395 Y151.439 E.03818
G1 X139.417 Y152.433 E.04373
G1 X138.225 Y153.085 E.04259
G1 X136.773 Y153.413 E.04668
G1 X118.415 Y153.413 E.57562
G1 X116.78 Y153.017 E.05275
G1 X115.858 Y152.493 E.03324
G1 X115.503 Y152.172 E.01501
G1 X115.221 Y152.431 E.01203
G1 X114.177 Y153.025 E.03764
G1 X112.573 Y153.413 E.05175
G1 X94.215 Y153.413 E.57562
G1 X92.731 Y153.076 E.04771
G1 X91.661 Y152.495 E.03818
G1 X90.667 Y151.517 E.04372
G1 X90.015 Y150.325 E.04259
G1 X89.687 Y148.873 E.04668
G1 X89.687 Y130.515 E.57562
G1 X90.083 Y128.88 E.05275
G1 X90.607 Y127.958 E.03324
G1 X90.928 Y127.603 E.01501
G1 X90.669 Y127.321 E.01202
G1 X90.075 Y126.277 E.03764
G1 X89.687 Y124.673 E.05175
G1 X89.687 Y106.315 E.57563
G1 X90.083 Y104.68 E.05275
G1 X90.607 Y103.758 E.03324
G1 X90.928 Y103.403 E.015
G1 X90.669 Y103.121 E.012
G1 X90.075 Y102.077 E.03766
G1 X89.687 Y100.473 E.05175
G1 X89.687 Y82.115 E.57562
G1 X90.024 Y80.631 E.04771
G1 X90.509 Y79.761 E.03123
G1 X90.832 Y79.941 F9000
G1 F1200
G1 X90.952 Y79.726 E.00774
G1 X91.79 Y78.883 E.03725
G1 X92.885 Y78.276 E.03927
G1 X94.162 Y77.974 E.04113
G1 X112.687 Y77.974 E.58084
G1 X114.2 Y78.391 E.04921
G1 X115.47 Y79.29 E.04877
G1 X116.334 Y80.552 E.04798
G1 X116.69 Y81.881 E.04313
G1 X118.114 Y81.578 E.04563
G1 X136.491 Y81.582 E.57622
G1 X138.24 Y82.098 E.05718
G1 X139.42 Y83.005 E.04666
G1 X140.245 Y84.295 E.04801
G1 X140.591 Y85.755 E.04704
G1 X140.591 Y104.074 E.57437
G1 X140.468 Y104.661 E.01882
G1 X140.638 Y105.001 E.01193
G1 X140.936 Y106.347 E.04323
G1 X140.936 Y124.67 E.5745
G1 X140.488 Y126.361 E.05486
G1 X139.988 Y127.151 E.0293
G1 X139.552 Y127.587 E.01934
G1 X139.756 Y127.777 E.00877
G1 X140.536 Y128.955 E.04427
G1 X140.936 Y130.539 E.05125
G1 X140.936 Y148.864 E.57455
G1 X140.615 Y150.258 E.04487
G1 X140.077 Y151.234 E.03494
