; generated by PrusaSlicer 2.4.2 on 2023-07-18 at 14:44:52 UTC

; 

; external perimeters extrusion width = 0.45mm
; perimeters extrusion width = 0.45mm
; infill extrusion width = 0.45mm
; solid infill extrusion width = 0.45mm
; top infill extrusion width = 0.40mm
; support material extrusion width = 0.38mm
; first layer extrusion width = 0.42mm

; external perimeters extrusion width = 0.45mm
; perimeters extrusion width = 0.45mm
; infill extrusion width = 0.45mm
; solid infill extrusion width = 0.45mm
; top infill extrusion width = 0.40mm
; support material extrusion width = 0.38mm
; first layer extrusion width = 0.42mm

M107
;TYPE:Custom
G90 ; use absolute coordinates
M83 ; extruder relative mode
M140 S60 ; set final bed temp
M104 S150 ; set temporary nozzle temp to prevent oozing during homing
G4 S10 ; allow partial nozzle warmup
G28 ; home all axis
G1 Z50 F240
G1 X2 Y10 F3000
M104 S215 ; set final nozzle temp
M190 S60 ; wait for bed temp to stabilize
M109 S215 ; wait for nozzle temp to stabilize
G1 Z0.28 F240
G92 E0
G1 Y140 E10 F1500 ; prime the nozzle
G1 X2.3 F5000
G92 E0
G1 Y10 E10 F1200 ; prime the nozzle
G92 E0
G21 ; set units to millimeters
G90 ; use absolute coordinates
M83 ; use relative distances for extrusion
; Filament gcode
M107
;LAYER_CHANGE
;Z:0.2
;HEIGHT:0.2
;BEFORE_LAYER_CHANGE
G92 E0
;0.2


G1 E-5 F3600
G1 Z.2 F9000
;AFTER_LAYER_CHANGE
;0.2
G1 X93.541 Y90.934
G1 E5 F2400
M204 S500
;TYPE:Skirt/Brim
;WIDTH:0.42
G1 F1200
G1 X95.342 Y89.907 E.06501
G1 X105.116 Y87.845 E.3132
G1 X105.894 Y87.773 E.02449
G1 X127.411 Y88.294 E.67485
G1 X128.159 Y88.399 E.02368
G1 X129.715 Y88.801 E.05039
G1 X133.605 Y89.983 E.12749
G1 X135.003 Y90.824 E.05114
G1 X135.938 Y92.28 E.05428
G1 X137.217 Y96.279 E.13163
G1 X137.778 Y98.544 E.07316
G1 X140.983 Y118.031 E.6192
G1 X141.002 Y136.812 E.58889
G1 X140.916 Y137.802 E.03113
G1 X140.636 Y139.194 E.04452
G1 X140.386 Y139.93 E.02437
G1 X139.791 Y141.186 E.04359
G1 X139.38 Y141.846 E.02437
G1 X138.497 Y142.952 E.04438
G1 X137.962 Y143.487 E.02372
G1 X136.905 Y144.33 E.0424
G1 X136.265 Y144.733 E.02372
G1 X135.006 Y145.339 E.04378
G1 X134.293 Y145.588 E.0237
G1 X132.975 Y145.889 E.04238
G1 X132.224 Y145.974 E.0237
G1 X99.163 Y145.977 E1.03659
G1 X98.174 Y145.891 E.03115
G1 X96.782 Y145.611 E.04453
G1 X96.046 Y145.361 E.02437
G1 X94.789 Y144.766 E.04358
G1 X94.13 Y144.355 E.02437
G1 X93.023 Y143.472 E.0444
G1 X92.487 Y142.937 E.02374
G1 X91.643 Y141.879 E.04244
G1 X91.241 Y141.237 E.02374
G1 X90.635 Y139.979 E.04378
G1 X90.386 Y139.266 E.02368
G1 X90.086 Y137.95 E.04234
G1 X90.001 Y137.199 E.02368
G1 X90.015 Y118.046 E.60052
G1 X92.569 Y92.98 E.79001
G1 X93.515 Y90.988 E.06913
G1 E-3.5 F3600
;WIPE_START
G1 F7200
G1 X95.342 Y89.907 E-1.00831
G1 X96.201 Y89.726 E-.41669
;WIPE_END
G1 E-.075 F3600
G1 X98.477 Y95.235 F9000
G1 E5 F2400
G1 F1200
G1 X99.77 Y93.83 E.05988
G1 X101.539 Y92.815 E.06393
G1 X103.916 Y92.169 E.07725
G1 X105.499 Y92.156 E.04964
G1 X105.752 Y92.196 E.00803
G1 X106.425 Y92.246 E.02117
G1 X107.456 Y92.547 E.03367
G1 X108.895 Y93.446 E.05319
G1 X109.609 Y94.212 E.03283
G1 X110.048 Y94.936 E.02655
G1 X110.676 Y96.689 E.0584
G1 X110.814 Y97.561 E.02767
G1 X110.722 Y98.806 E.03914
G1 X110.112 Y100.431 E.05442
G1 X109.17 Y101.593 E.04691
G1 X108.01 Y102.415 E.04456
G1 X107.484 Y102.9 E.02243
G1 X107.187 Y103.457 E.0198
G1 X107.456 Y103.884 E.01582
G1 X107.719 Y104.138 E.01145
G1 X109.03 Y105.024 E.04961
G1 X109.911 Y105.983 E.04082
G1 X110.633 Y107.478 E.05207
G1 X110.846 Y109.024 E.04893
G1 X110.482 Y111.087 E.06568
G1 X109.799 Y112.403 E.04648
G1 X109.107 Y113.146 E.03184
G1 X121.836 Y113.149 E.39911
G1 X120.929 Y111.834 E.0501
G1 X120.301 Y110.017 E.06028
G1 X120.178 Y109.123 E.02829
G1 X120.287 Y107.936 E.0374
G1 X120.682 Y106.761 E.03885
G1 X121.307 Y105.752 E.03721
G1 X121.755 Y105.281 E.02039
G1 X122.991 Y104.388 E.0478
G1 X123.551 Y103.868 E.02397
G1 X123.824 Y103.373 E.01773
G1 X123.456 Y102.825 E.02069
G1 X122.904 Y102.354 E.02276
G1 X121.916 Y101.711 E.03695
G1 X121.179 Y100.892 E.03453
G1 X120.437 Y99.402 E.05221
G1 X120.207 Y97.737 E.05269
G1 X120.453 Y96.033 E.05398
G1 X121.041 Y94.682 E.04619
G1 X122.071 Y93.486 E.04948
G1 X123.591 Y92.591 E.05533
G1 X125.148 Y92.218 E.05021
G1 X126.683 Y92.186 E.04812
G1 X127.607 Y92.297 E.0292
G1 X129.374 Y92.782 E.05744
G1 X130.743 Y93.472 E.04807
G1 X131.762 Y94.306 E.04127
G1 X132.57 Y95.306 E.04033
G1 X133.225 Y96.612 E.0458
G1 X133.733 Y98.45 E.05981
G1 X133.888 Y99.498 E.03322
G1 X133.719 Y101.427 E.0607
G1 X133.147 Y102.981 E.05191
G1 X132.92 Y103.324 E.01292
G1 X133.038 Y103.493 E.00646
G1 X133.588 Y104.784 E.044
G1 X133.835 Y106.439 E.05245
G1 X133.725 Y108.176 E.05459
G1 X133.281 Y110.044 E.06019
G1 X132.287 Y111.893 E.06581
G1 X131.045 Y113.151 E.05543
G1 X132.2 Y113.168 E.03623
G1 X133.995 Y113.711 E.0588
G1 X135.553 Y114.849 E.06046
G1 X136.611 Y116.432 E.05972
G1 X137.087 Y118.337 E.06158
G1 X137.073 Y136.944 E.5834
G1 X136.84 Y138.166 E.039
G1 X136.331 Y139.32 E.03955
G1 X135.491 Y140.399 E.04289
G1 X134.537 Y141.207 E.03918
G1 X134.445 Y141.256 E.00327
G1 X132.056 Y142.057 E.07901
G1 X99.265 Y142.068 E1.02815
G1 X98.007 Y141.873 E.0399
G1 X96.803 Y141.392 E.04064
G1 X95.583 Y140.471 E.04794
G1 X94.769 Y139.513 E.03943
G1 X94.72 Y139.421 E.00327
G1 X93.918 Y137.032 E.079
G1 X93.907 Y118.49 E.58137
G1 X94.102 Y117.23 E.03998
G1 X94.635 Y115.938 E.04383
G1 X95.506 Y114.805 E.04481
G1 X96.501 Y113.975 E.04063
G1 X98.826 Y113.163 E.07723
G1 X100.003 Y113.141 E.03688
G1 X98.706 Y111.88 E.05671
G1 X97.825 Y110.319 E.0562
G1 X97.262 Y108.254 E.06711
G1 X97.209 Y107.36 E.02808
G1 X97.224 Y107.102 E.00809
G1 X97.153 Y105.949 E.03625
G1 X97.41 Y104.618 E.0425
G1 X97.592 Y104.149 E.01575
G1 X98.055 Y103.423 E.02702
G1 X97.803 Y103.047 E.01419
G1 X97.589 Y102.546 E.01707
G1 X97.202 Y100.889 E.05337
G1 X97.155 Y99.944 E.02965
G1 X97.225 Y99.338 E.01912
G1 X97.274 Y98.467 E.02737
G1 X97.739 Y96.703 E.05718
G1 X98.45 Y95.289 E.04963
G1 X98.786 Y95.459 F9000
G1 F1200
G1 X99.984 Y94.142 E.05581
G1 X101.661 Y93.173 E.06075
G1 X103.991 Y92.539 E.0757
G1 X105.454 Y92.53 E.04589
G1 X105.71 Y92.572 E.00812
G1 X106.34 Y92.613 E.01979
G1 X107.325 Y92.902 E.0322
G1 X108.636 Y93.721 E.04846
G1 X109.319 Y94.454 E.03142
G1 X109.715 Y95.113 E.02411
G1 X110.306 Y96.768 E.05509
G1 X110.436 Y97.556 E.02504
G1 X110.348 Y98.75 E.03755
G1 X109.771 Y100.267 E.05089
G1 X108.895 Y101.333 E.04325
G1 X107.773 Y102.121 E.04297
G1 X107.182 Y102.666 E.02524
G1 X106.752 Y103.473 E.02867
G1 X107.162 Y104.124 E.02412
G1 X107.482 Y104.433 E.01394
G1 X108.768 Y105.296 E.04856
G1 X109.615 Y106.218 E.03924
G1 X110.264 Y107.561 E.0468
G1 X110.469 Y108.989 E.04522
G1 X110.116 Y110.992 E.06379
G1 X109.479 Y112.203 E.04289
G1 X108.593 Y113.131 E.04023
G1 X108.407 Y113.255 E.00701
G1 X108.489 Y113.523 E.00876
G1 X122.868 Y113.527 E.45085
G1 X121.976 Y112.688 E.03839
G1 X121.276 Y111.686 E.03832
G1 X120.663 Y109.911 E.05887
G1 X120.556 Y109.134 E.02459
G1 X120.652 Y108.034 E.03463
G1 X121.032 Y106.903 E.03743
G1 X121.616 Y105.968 E.03454
G1 X121.99 Y105.576 E.01698
G1 X123.231 Y104.68 E.04799
G1 X123.852 Y104.103 E.0266
G1 X124.266 Y103.353 E.02685
G1 X123.74 Y102.572 E.02953
G1 X123.129 Y102.05 E.02519
G1 X122.179 Y101.439 E.0354
G1 X121.476 Y100.659 E.03294
G1 X120.806 Y99.319 E.04696
G1 X120.584 Y97.712 E.05086
G1 X120.822 Y96.113 E.05069
G1 X121.347 Y94.905 E.04131
G1 X122.29 Y93.795 E.04566
G1 X123.757 Y92.93 E.05341
G1 X125.214 Y92.59 E.0469
G1 X126.676 Y92.563 E.04585
G1 X127.548 Y92.669 E.02753
G1 X129.255 Y93.141 E.05553
G1 X130.554 Y93.799 E.04566
G1 X131.481 Y94.559 E.03758
G1 X132.243 Y95.495 E.03784
G1 X132.867 Y96.73 E.0434
G1 X133.366 Y98.539 E.05884
G1 X133.512 Y99.531 E.03144
G1 X133.356 Y101.32 E.0563
G1 X132.802 Y102.826 E.05032
G1 X132.439 Y103.353 E.02007
G1 X132.706 Y103.674 E.0131
G1 X133.219 Y104.865 E.04066
G1 X133.457 Y106.435 E.04979
G1 X133.35 Y108.137 E.05346
G1 X132.937 Y109.887 E.05639
G1 X131.968 Y111.689 E.06415
G1 X130.925 Y112.733 E.04627
G1 X130.073 Y113.254 E.03131
G1 X130.149 Y113.528 E.00894
G1 X132.118 Y113.537 E.06173
G1 X133.854 Y114.063 E.05688
G1 X135.301 Y115.131 E.05639
G1 X136.278 Y116.612 E.05562
G1 X136.71 Y118.36 E.05645
G1 X136.699 Y136.892 E.58107
G1 X136.486 Y138.035 E.03646
G1 X136.019 Y139.107 E.03666
G1 X135.205 Y140.152 E.04152
G1 X134.334 Y140.889 E.03577
G1 X132.025 Y141.68 E.07655
G1 X99.279 Y141.691 E1.02671
G1 X98.087 Y141.504 E.03783
G1 X96.969 Y141.052 E.03782
G1 X95.828 Y140.184 E.04495
G1 X95.087 Y139.31 E.03593
G1 X94.295 Y137.001 E.07653
G1 X94.284 Y118.505 E.57992
G1 X94.472 Y117.311 E.03791
G1 X94.949 Y116.148 E.03942
G1 X95.792 Y115.052 E.04335
G1 X96.715 Y114.287 E.03757
G1 X98.918 Y113.53 E.07306
G1 X100.827 Y113.52 E.05985
G1 X100.9 Y113.239 E.00909
G1 X100.299 Y112.899 E.02166
G1 X99.021 Y111.67 E.0556
G1 X98.165 Y110.154 E.05457
G1 X97.631 Y108.175 E.06427
G1 X97.586 Y107.351 E.02587
G1 X97.602 Y107.102 E.00784
G1 X97.528 Y105.995 E.03479
G1 X97.769 Y104.735 E.04021
G1 X97.921 Y104.335 E.01341
G1 X98.508 Y103.414 E.03427
G1 X98.141 Y102.879 E.02034
G1 X97.953 Y102.444 E.01488
G1 X97.573 Y100.82 E.05228
G1 X97.532 Y99.943 E.02753
G1 X97.601 Y99.371 E.01807
G1 X97.644 Y98.544 E.02597
G1 X98.098 Y96.819 E.05593
G1 X98.759 Y95.513 E.0459
G1 X99.095 Y95.684 F9000
G1 F1200
G1 X99.126 Y95.623 E.00214
G1 X100.198 Y94.453 E.04976
G1 X101.784 Y93.53 E.05754
G1 X104.066 Y92.909 E.07413
G1 X105.409 Y92.905 E.04213
G1 X105.67 Y92.947 E.00826
G1 X106.255 Y92.982 E.01838
G1 X107.194 Y93.257 E.03069
G1 X108.377 Y93.997 E.04373
G1 X109.03 Y94.697 E.03002
G1 X109.366 Y95.258 E.02051
G1 X109.945 Y96.878 E.05396
G1 X110.06 Y97.594 E.02274
G1 X109.985 Y98.645 E.03302
G1 X109.459 Y100.053 E.04713
G1 X108.621 Y101.074 E.04142
G1 X107.537 Y101.825 E.04134
G1 X106.879 Y102.432 E.02808
G1 X106.415 Y103.303 E.03093
G1 X106.295 Y103.456 E.00609
G1 X106.867 Y104.364 E.03365
G1 X107.244 Y104.727 E.01642
G1 X108.538 Y105.596 E.04888
G1 X109.317 Y106.451 E.03627
G1 X109.896 Y107.646 E.04163
G1 X110.093 Y108.954 E.04147
G1 X109.75 Y110.898 E.06188
G1 X109.188 Y111.961 E.03771
G1 X108.345 Y112.845 E.03831
G1 X107.2 Y113.49 E.0412
G1 X106.908 Y113.576 E.00956
G1 X106.954 Y113.899 E.01023
G1 X123.967 Y113.904 E.53342
G1 X124.039 Y113.62 E.0092
G1 X122.804 Y112.948 E.0441
G1 X122.272 Y112.453 E.02277
G1 X121.623 Y111.536 E.03522
G1 X121.034 Y109.839 E.05635
G1 X120.933 Y109.145 E.02197
G1 X121.026 Y108.09 E.0332
G1 X121.382 Y107.046 E.03461
G1 X121.904 Y106.213 E.0308
G1 X122.226 Y105.871 E.01472
G1 X123.47 Y104.972 E.04814
G1 X124.153 Y104.338 E.02923
G1 X124.707 Y103.333 E.03597
G1 X124.024 Y102.319 E.03836
G1 X123.353 Y101.746 E.02766
G1 X122.442 Y101.167 E.03383
G1 X121.774 Y100.426 E.03129
G1 X121.158 Y99.18 E.04358
G1 X120.961 Y97.742 E.04552
G1 X121.192 Y96.194 E.04905
G1 X121.681 Y95.082 E.03811
G1 X122.509 Y94.104 E.04018
G1 X123.923 Y93.27 E.05148
G1 X125.278 Y92.962 E.04356
G1 X126.644 Y92.939 E.04284
G1 X127.461 Y93.037 E.0258
G1 X129.136 Y93.499 E.05447
G1 X130.364 Y94.125 E.04321
G1 X131.227 Y94.837 E.03508
G1 X131.916 Y95.684 E.03423
G1 X132.508 Y96.849 E.04099
G1 X132.999 Y98.628 E.05787
G1 X133.136 Y99.564 E.02965
G1 X132.994 Y101.214 E.05191
G1 X132.457 Y102.672 E.04871
G1 X131.954 Y103.382 E.02729
G1 X132.374 Y103.855 E.01983
G1 X132.85 Y104.948 E.03737
G1 X133.08 Y106.432 E.0471
G1 X132.974 Y108.098 E.05232
G1 X132.593 Y109.731 E.05259
G1 X131.649 Y111.486 E.06246
G1 X130.677 Y112.449 E.04293
G1 X129.529 Y113.14 E.04202
G1 X128.018 Y113.582 E.04933
G1 X128.065 Y113.905 E.01025
G1 X132.036 Y113.906 E.12451
G1 X133.713 Y114.414 E.05495
G1 X135.048 Y115.413 E.05226
G1 X135.945 Y116.79 E.05154
G1 X136.333 Y118.382 E.05137
G1 X136.325 Y136.841 E.57879
G1 X136.131 Y137.907 E.03395
G1 X135.706 Y138.895 E.03372
G1 X134.92 Y139.904 E.04012
G1 X134.132 Y140.566 E.03226
G1 X131.993 Y141.303 E.07095
G1 X99.293 Y141.314 E1.02526
G1 X98.206 Y141.145 E.0345
G1 X97.176 Y140.736 E.03475
G1 X96.073 Y139.897 E.04346
G1 X95.409 Y139.108 E.03233
G1 X94.672 Y136.969 E.07093
G1 X94.661 Y118.52 E.57845
G1 X94.84 Y117.391 E.03583
G1 X95.264 Y116.357 E.03502
G1 X96.078 Y115.299 E.04187
G1 X96.927 Y114.601 E.03447
G1 X99.009 Y113.897 E.06891
G1 X102.758 Y113.898 E.11754
G1 X102.807 Y113.579 E.01013
G1 X101.611 Y113.198 E.03936
G1 X100.54 Y112.608 E.03833
G1 X99.334 Y111.459 E.05223
G1 X98.523 Y110.033 E.05145
G1 X98.001 Y108.097 E.06286
G1 X97.964 Y107.345 E.02361
G1 X97.981 Y107.101 E.00766
G1 X97.903 Y106.04 E.03336
G1 X98.128 Y104.85 E.03797
G1 X98.25 Y104.52 E.01102
G1 X98.962 Y103.403 E.04154
G1 X98.479 Y102.712 E.02645
G1 X98.306 Y102.31 E.01372
G1 X97.945 Y100.752 E.05013
G1 X97.909 Y99.943 E.0254
G1 X97.977 Y99.403 E.01706
G1 X98.014 Y98.62 E.02458
G1 X98.458 Y96.935 E.05465
G1 X99.068 Y95.737 E.04213
G1 E-3.5 F3600
;WIPE_START
G1 F7200
G1 X99.126 Y95.623 E-.06087
G1 X100.198 Y94.453 E-.75376
G1 X101.309 Y93.807 E-.61037
;WIPE_END
G1 E-.075 F3600
G1 X121.338 Y97.771 F9000
G1 E5 F2400
G1 F1200
G1 X121.561 Y96.276 E.04739
G1 X122.014 Y95.26 E.03489
G1 X122.728 Y94.412 E.03474
G1 X124.088 Y93.611 E.04951
G1 X125.34 Y93.334 E.04019
G1 X126.613 Y93.315 E.03992
G1 X127.375 Y93.404 E.02406
G1 X129.017 Y93.857 E.0534
G1 X130.173 Y94.451 E.04076
G1 X130.947 Y95.091 E.03148
G1 X131.59 Y95.874 E.03178
G1 X132.15 Y96.968 E.03854
G1 X132.633 Y98.717 E.05688
G1 X132.759 Y99.597 E.02787
G1 X132.631 Y101.107 E.04754
G1 X132.112 Y102.516 E.04708
G1 X131.465 Y103.413 E.03467
G1 X132.043 Y104.038 E.02669
G1 X132.481 Y105.032 E.03405
G1 X132.702 Y106.43 E.04439
G1 X132.603 Y108.029 E.05023
G1 X132.248 Y109.576 E.04978
G1 X131.363 Y111.239 E.05906
G1 X130.462 Y112.138 E.03989
G1 X129.356 Y112.804 E.0405
G1 X126.898 Y113.511 E.08017
G1 X125.98 Y113.577 E.02887
G1 X125.384 Y113.482 E.01891
G1 X124.952 Y113.471 E.01355
G1 X124.296 Y113.329 E.02104
G1 X123.041 Y112.654 E.04469
G1 X122.568 Y112.219 E.02015
G1 X121.947 Y111.341 E.03372
G1 X121.397 Y109.734 E.05325
G1 X121.31 Y109.114 E.01963
G1 X121.39 Y108.19 E.02908
G1 X121.732 Y107.189 E.03318
G1 X122.212 Y106.431 E.02815
G1 X122.461 Y106.167 E.01137
G1 X123.71 Y105.265 E.04831
G1 X124.42 Y104.605 E.03038
G1 X124.498 Y104.505 E.00398
G1 X124.917 Y103.711 E.02817
G1 X125.235 Y103.373 E.01454
G1 X125.062 Y103.189 E.00792
G1 X124.355 Y102.119 E.0402
G1 X124.267 Y102.03 E.00393
G1 X123.576 Y101.44 E.02849
G1 X122.704 Y100.895 E.03225
G1 X122.072 Y100.193 E.0296
G1 X121.51 Y99.042 E.04017
G1 X121.346 Y97.83 E.03834
G1 X121.715 Y97.797 F9000
G1 F1200
G1 X121.916 Y96.403 E.04418
G1 X122.32 Y95.481 E.03155
G1 X122.995 Y94.68 E.03286
G1 X124.2 Y93.972 E.04379
G1 X125.366 Y93.711 E.03747
G1 X126.583 Y93.691 E.03817
G1 X127.289 Y93.772 E.02229
G1 X128.898 Y94.216 E.05232
G1 X129.949 Y94.755 E.03703
G1 X130.692 Y95.369 E.03024
G1 X131.284 Y96.096 E.0294
G1 X131.805 Y97.121 E.03605
G1 X132.266 Y98.805 E.05472
G1 X132.383 Y99.628 E.02607
G1 X132.258 Y101.048 E.0447
G1 X131.769 Y102.359 E.04388
G1 X131.197 Y103.139 E.03031
G1 X130.906 Y103.376 E.01177
G1 X131.711 Y104.222 E.0366
G1 X132.126 Y105.161 E.03221
G1 X132.325 Y106.427 E.04017
G1 X132.228 Y107.99 E.0491
G1 X131.886 Y109.467 E.04755
G1 X131.076 Y110.992 E.05413
G1 X130.213 Y111.854 E.03826
G1 X129.184 Y112.467 E.03754
G1 X126.814 Y113.143 E.07726
G1 X125.977 Y113.199 E.02631
G1 X125.419 Y113.106 E.01775
G1 X125.013 Y113.098 E.01273
G1 X124.402 Y112.966 E.0196
G1 X123.277 Y112.36 E.04007
G1 X122.864 Y111.984 E.01751
G1 X122.271 Y111.146 E.03218
G1 X121.759 Y109.63 E.05016
G1 X121.687 Y109.125 E.016
G1 X121.764 Y108.246 E.02767
G1 X122.062 Y107.372 E.02895
G1 X122.52 Y106.649 E.02684
G1 X122.72 Y106.441 E.00906
G1 X123.949 Y105.557 E.04746
G1 X124.698 Y104.862 E.03203
G1 X124.816 Y104.712 E.00598
G1 X125.237 Y103.913 E.0283
G1 X125.782 Y103.364 E.02427
G1 X125.363 Y102.96 E.01827
G1 X124.649 Y101.88 E.04057
G1 X124.524 Y101.754 E.00559
G1 X123.798 Y101.134 E.02992
G1 X122.966 Y100.622 E.03064
G1 X122.37 Y99.96 E.02792
G1 X121.879 Y98.959 E.03496
G1 X121.723 Y97.857 E.03491
G1 X122.092 Y97.822 F9000
G1 F1200
